X:1
L:1/16
M:2/4
K:G
 (Bcd2 efg2) | d2B2 (B^AB2) | d2A2 (A^GA2) | B2G2 (GFG2) | (Bcd2 efg2) | d2B2 (B^AB2) | 
 (d2cB AcBA) | G2G2 G2 z2 | (Bcd2 efg2) | d2B2 (B^AB2) | d2A2 A^GA2 | B2G2 (GFG2) | (Bcd2 efg2) | 
 d2B2 (B^AB2) | (d2cB AcBA) | G2G2 G2 z2 |:[K:D] (ABA2 d2A2) | (c2B2) B2 z2 | (EFG2) (GFE2) | 
 (F2D2 DEFG) | (ABA2 d2A2) | c2B2 B2 z2 | (ABcd egfe) | (3efed2 d2 z2 | (ABA2 d2A2) | 
 (c2B2) B2 z2 | (EFG2) (GFE2) | F2D2 DEFG | (ABA2 d2A2) | c2B2 B2 z2 | (ABcd egfe) | 
 (3efed2 d2 z2 :|[K:G] (Bcd2 efg2) | d2B2 (B^AB2) | d2A2 (A^GA2) | B2G2 (GFG2) | (Bcd2 efg2) | 
 d2B2 (B^AB2) | (d2cB AcBA) | (GABc defg) | (d2cB AcBA) | (G2B2 d2B2) | (G2B2 d2B2) | (G2B2 d2B2) | 
 G2g2 g2 z2 || </s><end_of_turn>
<start_of_turn>model
Sure, here is the extracted motif in ABC format:

(Bcd2 efg2) | d2B2 (B^AB2) | d2A2 (A^GA2) | B2G2 (GFG2) |<eos>

id:9
<bos><start_of_turn>user
You will see an instruction related to extracting the motif of a piece of ABC music. Your responses should only include the extracted motif in ABC format.

data is:
Human: Analyze the musical work and pinpoint the consistent melodic element in every section.
